static/logos/1password-glyph-color.svg

<svg width="50" height="50" viewBox="0 0 50 50" fill="none" xmlns="http://www.w3.org/2000/svg">
<g clip-path="url(#clip0_1_3647)">
<path fill-rule="evenodd" clip-rule="evenodd" d="M0.859375 25.0002C0.859375 38.3318 11.6668 49.1385 24.9977 49.1385C38.3285 49.1385 49.136 38.3318 49.136 25.0002C49.136 11.6693 38.3285 0.861816 24.9977 0.861816C11.6668 0.861816 0.859375 11.6693 0.859375 25.0002Z" fill="white"/>
<path fill-rule="evenodd" clip-rule="evenodd" d="M24.9971 6.0343C35.4721 6.0343 43.9629 14.526 43.9629 25.0001C43.9629 35.4751 35.4713 43.966 24.9971 43.966C14.5221 43.966 6.03125 35.4743 6.03125 25.0001C6.03125 14.5251 14.5229 6.0343 24.9971 6.0343Z" fill="#1A8CFF"/>
<path opacity="0.5" d="M0 25C0 38.8083 11.1925 50 25 50C38.8075 50 50 38.8083 50 25C50 11.1925 38.8075 0 25 0C11.1925 0 0 11.1925 0 25ZM0.861667 25C0.861667 11.6708 11.6675 0.861667 25 0.861667C38.3325 0.861667 49.1383 11.67 49.1383 25C49.1383 38.33 38.3325 49.1383 25 49.1383C11.6667 49.1383 0.861667 38.33 0.861667 25Z" fill="black"/>
<path fill-rule="evenodd" clip-rule="evenodd" d="M49.1018 23.7065C49.1243 24.1348 49.1352 24.5656 49.1352 24.9998C49.1352 38.3306 38.3285 49.1381 24.9977 49.1381C11.6668 49.1381 0.859375 38.3306 0.859375 24.9998C0.859375 24.5665 0.871042 24.1348 0.893542 23.7065C1.56604 36.4365 12.1002 46.5515 24.9977 46.5515C37.7952 46.5515 48.2668 36.5915 49.0843 24.0006L49.101 23.7065H49.1018ZM24.9977 3.44812C36.6627 3.44812 46.1185 12.904 46.1185 24.569C46.1185 31.0898 43.1627 36.9206 38.5185 40.7956C42.3993 37.1756 44.8252 32.0181 44.8252 26.2931C44.8252 15.3431 35.9485 6.46562 24.9977 6.46562C14.0477 6.46562 5.17021 15.3423 5.17021 26.2931C5.17021 32.0181 7.59603 37.1765 11.4768 40.7956C6.8327 36.9206 3.87688 31.0898 3.87688 24.569C3.87688 12.904 13.3327 3.44812 24.9977 3.44812Z" fill="black" fill-opacity="0.052"/>
<path opacity="0.256" d="M24.9971 6.0343C35.4721 6.0343 43.9629 14.5276 43.9629 25.0001C43.9629 35.4735 35.4729 43.966 24.9971 43.966C14.6263 43.966 6.20125 35.6426 6.03375 25.3135L6.03125 25.0001C6.03125 14.5276 14.5221 6.0343 24.9971 6.0343ZM24.9971 6.8968C14.9988 6.8968 6.89375 15.0018 6.89375 25.0001C6.89375 34.9985 14.9988 43.1035 24.9971 43.1035C34.9954 43.1035 43.1004 34.9985 43.1004 25.0001C43.1004 15.0018 34.9954 6.8968 24.9971 6.8968Z" fill="black"/>
<path d="M25.0958 9.9138C23.1001 9.90655 21.1227 10.2942 19.2775 11.0546C17.4322 11.815 15.7557 12.933 14.3446 14.3442C12.9333 15.7554 11.8153 17.4319 11.055 19.2771C10.2946 21.1223 9.90691 23.0997 9.91416 25.0955C9.91416 33.3621 16.6992 40.0855 25.0958 40.0855C33.3317 40.0855 40.0858 33.3313 40.0858 25.0955C40.0858 16.6996 33.3633 9.9138 25.0958 9.9138ZM25.0958 10.7755C32.8558 10.7755 39.2242 17.1438 39.2242 25.0955C39.2242 32.8555 32.8558 39.2238 25.0958 39.2238C17.1442 39.2238 10.7758 32.8555 10.7758 25.0955C10.7686 23.2129 11.134 21.3475 11.8511 19.6069C12.5682 17.8662 13.6227 16.2846 14.9538 14.9535C16.285 13.6223 17.8665 12.5678 19.6072 11.8507C21.3478 11.1336 23.2132 10.7682 25.0958 10.7755Z" fill="black" fill-opacity="0.25"/>
<path fill-rule="evenodd" clip-rule="evenodd" d="M25.0935 10.7756C32.8535 10.7756 39.2219 17.144 39.2219 25.0956C39.2219 32.8556 32.8535 39.224 25.0935 39.224C17.1419 39.224 10.7735 32.8556 10.7735 25.0956C10.7663 23.213 11.1317 21.3476 11.8488 19.607C12.5659 17.8663 13.6204 16.2848 14.9516 14.9536C16.2828 13.6225 17.8643 12.568 19.605 11.8509C21.3456 11.1338 23.211 10.7684 25.0935 10.7756Z" fill="#F7F7F7"/>
<path fill-rule="evenodd" clip-rule="evenodd" d="M31.4638 24.9998C31.4774 25.8576 31.3203 26.7096 31.0014 27.5061C30.6825 28.3026 30.2084 29.0277 29.6065 29.6391C29.0047 30.2505 28.2872 30.7361 27.4958 31.0675C26.7044 31.3989 25.855 31.5695 24.9971 31.5694C24.1391 31.5693 23.2898 31.3984 22.4985 31.0669C21.7073 30.7353 20.9899 30.2495 20.3882 29.6379C19.7864 29.0264 19.3125 28.3011 18.9939 27.5045C18.6752 26.7079 18.5182 25.8559 18.5321 24.9981C18.5596 23.3013 19.253 21.6832 20.4628 20.493C21.6725 19.3028 23.3017 18.6359 24.9988 18.6361C26.6959 18.6363 28.3249 19.3037 29.5343 20.4942C30.7438 21.6847 31.4368 23.3029 31.4638 24.9998Z" fill="black" fill-opacity="0.05"/>
<path d="M24.9998 17.6725C23.0564 17.6725 21.1925 18.4446 19.8182 19.8188C18.444 21.1931 17.6719 23.0569 17.6719 25.0004C17.6719 26.9439 18.444 28.8078 19.8182 30.1821C21.1925 31.5563 23.0564 32.3283 24.9998 32.3283C26.9433 32.3283 28.8072 31.5563 30.1815 30.1821C31.5557 28.8078 32.3277 26.9439 32.3277 25.0004C32.3277 23.0569 31.5557 21.1931 30.1815 19.8188C28.8072 18.4446 26.9433 17.6725 24.9998 17.6725ZM24.9998 18.5342C25.8551 18.5247 26.7039 18.6849 27.4969 19.0057C28.2899 19.3264 29.0113 19.8013 29.6195 20.4028C30.2276 21.0043 30.7104 21.7206 31.0398 22.51C31.3693 23.2994 31.5388 24.1463 31.5386 25.0017C31.5385 25.8571 31.3686 26.7039 31.0389 27.4932C30.7091 28.2825 30.226 28.9986 29.6177 29.5998C29.0093 30.2011 28.2876 30.6757 27.4945 30.9962C26.7015 31.3167 25.8526 31.4766 24.9973 31.4666C23.2951 31.4469 21.6693 30.7567 20.4727 29.5459C19.2761 28.335 18.6053 26.7012 18.6057 24.9988C18.6061 23.2964 19.2779 21.6629 20.475 20.4527C21.6723 19.2424 23.2984 18.5531 25.0006 18.5342H24.9998Z" fill="white"/>
<path d="M25.0035 18.534C25.8589 18.5245 26.7076 18.6847 27.5005 19.0055C28.2935 19.3262 29.015 19.8011 29.6231 20.4026C30.2313 21.0041 30.7141 21.7204 31.0435 22.5098C31.373 23.2992 31.5425 24.1461 31.5424 25.0015C31.5422 25.8569 31.3723 26.7037 31.0425 27.4931C30.7128 28.2823 30.2298 28.9983 29.6214 29.5996C29.013 30.2009 28.2914 30.6756 27.4983 30.996C26.7051 31.3165 25.8564 31.4764 25.001 31.4665C23.2988 31.4467 21.673 30.7566 20.4764 29.5456C19.2798 28.3348 18.609 26.701 18.6094 24.9986C18.6099 23.2962 19.2815 21.6627 20.4788 20.4525C21.676 19.2422 23.3021 18.5529 25.0044 18.534H25.0035ZM25.0035 19.3965C24.2676 19.3964 23.539 19.5412 22.8591 19.8228C22.1792 20.1044 21.5615 20.5171 21.0411 21.0374C20.5208 21.5577 20.108 22.1755 19.8265 22.8554C19.545 23.5353 19.4 24.264 19.4002 24.9998C19.4 25.7357 19.545 26.4644 19.8265 27.1442C20.108 27.8241 20.5208 28.4419 21.0411 28.9622C21.5615 29.4826 22.1792 29.8953 22.8591 30.1769C23.539 30.4584 24.2676 30.6032 25.0035 30.6031C25.7394 30.6032 26.468 30.4584 27.148 30.1769C27.8279 29.8953 28.4456 29.4826 28.966 28.9622C29.4863 28.4419 29.899 27.8241 30.1805 27.1442C30.4621 26.4644 30.607 25.7357 30.6069 24.9998C30.607 24.264 30.4621 23.5353 30.1805 22.8554C29.899 22.1755 29.4863 21.5577 28.966 21.0374C28.4456 20.5171 27.8279 20.1044 27.148 19.8228C26.468 19.5412 25.7394 19.3964 25.0035 19.3965Z" fill="black" fill-opacity="0.15"/>
<path d="M27.4017 13.7932H22.5933C21.5292 13.7932 20.6875 14.7265 20.6875 15.8499V20.5015C20.6875 20.9249 20.84 21.334 21.1167 21.6407L21.8233 22.424C21.84 22.4432 21.84 22.494 21.8233 22.5124L21.1167 23.2957C20.84 23.604 20.6875 24.0124 20.6875 24.4349V34.1499C20.6875 35.274 21.5292 36.2074 22.5942 36.2074H27.4017C28.4675 36.2074 29.3083 35.274 29.3083 34.1499V29.4982C29.3106 29.0788 29.1578 28.6734 28.8792 28.3599L28.1725 27.5757C28.1558 27.5574 28.1558 27.5057 28.1725 27.4874L28.8792 26.704C29.1558 26.3965 29.3083 25.9882 29.3083 25.5649V15.8499C29.3083 14.7265 28.4667 13.7932 27.4017 13.7932ZM27.3467 14.6715C27.9542 14.6715 28.4467 15.2299 28.4467 15.9174V25.5615C28.4467 25.7815 28.3692 25.9924 28.2317 26.1482L27.5442 26.9265C27.4058 27.091 27.3298 27.299 27.3298 27.514C27.3298 27.729 27.4058 27.937 27.5442 28.1015L28.2317 28.8799C28.3692 29.0357 28.4458 29.2465 28.4458 29.4665V34.0832C28.4458 34.7707 27.9542 35.329 27.3467 35.329H22.6492C22.0417 35.329 21.5492 34.7707 21.5492 34.0832V24.439C21.5492 24.219 21.6267 24.0074 21.7642 23.8515L22.4517 23.0732C22.5901 22.9087 22.6659 22.7006 22.6659 22.4857C22.6659 22.2707 22.5901 22.0626 22.4517 21.8982L21.7642 21.1207C21.6237 20.9574 21.5473 20.7486 21.5492 20.5332V15.9165C21.5492 15.229 22.0417 14.6715 22.6492 14.6715H27.3458H27.3467Z" fill="white"/>
<path fill-rule="evenodd" clip-rule="evenodd" d="M21.5547 20.5266V15.9032C21.5547 15.2141 22.0472 14.6549 22.6547 14.6549H27.3514C27.9589 14.6549 28.4514 15.2132 28.4514 15.9032V25.5616C28.4514 25.7824 28.3739 25.9949 28.2364 26.1499L27.5489 26.9299C27.4104 27.0946 27.3345 27.3027 27.3345 27.5178C27.3345 27.733 27.4104 27.9412 27.5489 28.1057L28.2364 28.8857C28.3739 29.0416 28.4506 29.2532 28.4506 29.4741V34.0974C28.4506 34.7866 27.9589 35.3449 27.3514 35.3449H22.6547C22.0472 35.3449 21.5547 34.7866 21.5547 34.0974V24.4382C21.5547 24.2174 21.6322 24.0057 21.7697 23.8499L22.4572 23.0707C22.5957 22.906 22.6717 22.6977 22.6717 22.4824C22.6717 22.2672 22.5957 22.0588 22.4572 21.8941L21.7697 21.1141C21.6292 20.9507 21.5529 20.742 21.5547 20.5266Z" fill="#0A2D4D"/>
<path d="M27.3522 14.6549C27.9597 14.6549 28.4522 15.2132 28.4522 15.9032V25.5616C28.4522 25.7824 28.3747 25.9949 28.2372 26.1499L27.5497 26.9299C27.4112 27.0946 27.3353 27.3027 27.3353 27.5178C27.3353 27.733 27.4112 27.9412 27.5497 28.1057L28.2372 28.8857C28.3747 29.0416 28.4514 29.2532 28.4514 29.4741V34.0974C28.4514 34.7866 27.9597 35.3449 27.3522 35.3449H22.6547C22.0472 35.3449 21.5547 34.7866 21.5547 34.0974V24.4382C21.5547 24.2174 21.6322 24.0057 21.7697 23.8499L22.4572 23.0707C22.5957 22.906 22.6717 22.6977 22.6717 22.4824C22.6717 22.2672 22.5957 22.0588 22.4572 21.8941L21.7697 21.1141C21.6292 20.9507 21.5529 20.742 21.5547 20.5266V15.9032C21.5547 15.2141 22.0472 14.6549 22.6547 14.6549H27.3514H27.3522ZM27.2281 15.5407L22.7781 15.5349C22.6039 15.5349 22.4406 15.6982 22.4197 15.9299L22.4172 15.9799V20.5632C22.4172 20.5766 22.4197 20.5882 22.4239 20.5966L22.4297 20.6066L23.1497 21.3799C23.7122 21.9841 23.7314 22.9316 23.2081 23.5599L23.1497 23.6266L22.4297 24.3991C22.4242 24.4065 22.4205 24.4151 22.4189 24.4241L22.4172 24.4424V34.0199C22.4172 34.2607 22.5697 34.4399 22.7414 34.4624L22.7789 34.4649L27.2289 34.4707C27.4022 34.4707 27.5664 34.3074 27.5872 34.0757L27.5897 34.0257V29.4432C27.5896 29.4318 27.5874 29.4205 27.5831 29.4099L27.5772 29.3999L26.8572 28.6266C26.5864 28.3312 26.4313 27.9478 26.4206 27.5471C26.4099 27.1464 26.5442 26.7553 26.7989 26.4457L26.8572 26.3799L27.5772 25.6066C27.5829 25.5993 27.5866 25.5907 27.5881 25.5816L27.5897 25.5632V15.9866C27.5897 15.7449 27.4372 15.5657 27.2647 15.5432L27.2281 15.5407Z" fill="black" fill-opacity="0.4"/>
</g>
<defs>
<clipPath id="clip0_1_3647">
<rect width="50" height="50" fill="white"/>
</clipPath>
</defs>
</svg>

<svg xmlns="http://www.w3.org/2000/svg" width="64" height="64" fill="none" viewBox="0 0 50 50"><g clip-path="url(#a)"><path fill="#fff" fill-rule="evenodd" d="M.86 25c0 13.332 10.807 24.139 24.138 24.139 13.33 0 24.138-10.807 24.138-24.139C49.136 11.67 38.328.862 24.998.862 11.667.862.859 11.669.859 25Z" clip-rule="evenodd"/><path fill="#1A8CFF" fill-rule="evenodd" d="M24.997 6.034c10.475 0 18.966 8.492 18.966 18.966 0 10.475-8.492 18.966-18.966 18.966-10.475 0-18.966-8.492-18.966-18.966 0-10.475 8.492-18.966 18.966-18.966Z" clip-rule="evenodd"/><path fill="#000" d="M0 25c0 13.808 11.193 25 25 25s25-11.192 25-25C50 11.193 38.807 0 25 0S0 11.193 0 25Zm.862 0C.862 11.67 11.668.862 25 .862 38.333.862 49.138 11.67 49.138 25c0 13.33-10.805 24.138-24.138 24.138C11.667 49.138.862 38.33.862 25Z" opacity=".5"/><path fill="#000" fill-opacity=".052" fill-rule="evenodd" d="M49.102 23.706c.022.429.033.86.033 1.294 0 13.33-10.806 24.138-24.137 24.138C11.667 49.138.859 38.331.859 25c0-.433.012-.865.035-1.294.672 12.73 11.206 22.845 24.104 22.845 12.797 0 23.269-9.96 24.086-22.55l.017-.295ZM24.998 3.448c11.665 0 21.12 9.456 21.12 21.121 0 6.52-2.955 12.352-7.6 16.227a19.773 19.773 0 0 0 6.307-14.503c0-10.95-8.877-19.827-19.827-19.827-10.95 0-19.828 8.876-19.828 19.827a19.771 19.771 0 0 0 6.307 14.503c-4.644-3.875-7.6-9.706-7.6-16.227 0-11.665 9.456-21.12 21.12-21.12Z" clip-rule="evenodd"/><path fill="#000" d="M24.997 6.034c10.475 0 18.966 8.494 18.966 18.966 0 10.474-8.49 18.966-18.966 18.966-10.37 0-18.796-8.323-18.963-18.652L6.03 25c0-10.472 8.491-18.966 18.966-18.966Zm0 .863C15 6.897 6.894 15.002 6.894 25c0 9.998 8.105 18.103 18.103 18.103C34.995 43.103 43.1 34.998 43.1 25c0-9.998-8.105-18.103-18.103-18.103Z" opacity=".256"/><path fill="#000" fill-opacity=".25" d="M25.096 9.914A15.126 15.126 0 0 0 9.914 25.096c0 8.266 6.785 14.99 15.182 14.99 8.236 0 14.99-6.755 14.99-14.99 0-8.396-6.723-15.182-14.99-15.182Zm0 .861c7.76 0 14.128 6.369 14.128 14.32 0 7.76-6.368 14.129-14.128 14.129-7.952 0-14.32-6.368-14.32-14.128a14.265 14.265 0 0 1 14.32-14.32Z"/><path fill="#F7F7F7" fill-rule="evenodd" d="M25.093 10.776c7.76 0 14.129 6.368 14.129 14.32 0 7.76-6.369 14.128-14.129 14.128-7.951 0-14.32-6.368-14.32-14.128a14.265 14.265 0 0 1 14.32-14.32Z" clip-rule="evenodd"/><path fill="#000" fill-opacity=".05" fill-rule="evenodd" d="M31.464 25a6.467 6.467 0 1 1-12.933.205A6.467 6.467 0 0 1 31.464 25Z" clip-rule="evenodd"/><path fill="#fff" d="M25 17.672a7.328 7.328 0 1 0 0 14.657 7.328 7.328 0 0 0 0-14.657Zm0 .862a6.467 6.467 0 1 1 .142 12.934 6.467 6.467 0 0 1-.141-12.934H25Z"/><path fill="#000" fill-opacity=".15" d="M25.003 18.534a6.466 6.466 0 1 1 .143 12.931 6.466 6.466 0 0 1-.142-12.931Zm0 .863a5.602 5.602 0 0 0-5.177 7.747 5.602 5.602 0 0 0 9.14 1.818 5.601 5.601 0 0 0 0-7.925 5.604 5.604 0 0 0-3.963-1.64Z"/><path fill="#fff" d="M27.402 13.793h-4.809c-1.064 0-1.905.934-1.905 2.057v4.652c0 .423.152.832.429 1.139l.706.783c.017.02.017.07 0 .088l-.706.784c-.277.308-.43.716-.43 1.139v9.715c0 1.124.842 2.057 1.907 2.057h4.808c1.066 0 1.906-.933 1.906-2.057v-4.652a1.7 1.7 0 0 0-.429-1.138l-.707-.784c-.016-.019-.016-.07 0-.089l.707-.783c.277-.308.43-.716.43-1.14V15.85c0-1.123-.842-2.057-1.907-2.057Zm-.055.879c.607 0 1.1.558 1.1 1.245v9.644c0 .22-.078.431-.215.587l-.688.779a.913.913 0 0 0 0 1.175l.688.778a.888.888 0 0 1 .214.587v4.616c0 .688-.492 1.246-1.1 1.246H22.65c-.607 0-1.1-.558-1.1-1.246V24.44c0-.22.078-.432.215-.587l.688-.779a.913.913 0 0 0 0-1.175l-.688-.777a.889.889 0 0 1-.215-.588v-4.617c0-.687.493-1.245 1.1-1.245h4.697Z"/><path fill="#0A2D4D" fill-rule="evenodd" d="M21.555 20.527v-4.624c0-.689.492-1.248 1.1-1.248h4.696c.608 0 1.1.558 1.1 1.248v9.659a.89.89 0 0 1-.215.588l-.687.78a.913.913 0 0 0 0 1.176l.687.78a.891.891 0 0 1 .215.588v4.623c0 .69-.492 1.248-1.1 1.248h-4.696c-.608 0-1.1-.558-1.1-1.248v-9.659c0-.22.077-.432.215-.588l.687-.78a.914.914 0 0 0 0-1.176l-.687-.78a.89.89 0 0 1-.215-.587Z" clip-rule="evenodd"/><path fill="#000" fill-opacity=".4" d="M27.352 14.655c.608 0 1.1.558 1.1 1.248v9.659a.89.89 0 0 1-.215.588l-.687.78a.913.913 0 0 0 0 1.176l.687.78a.891.891 0 0 1 .214.588v4.623c0 .69-.491 1.248-1.099 1.248h-4.697c-.608 0-1.1-.558-1.1-1.248v-9.659c0-.22.077-.432.215-.588l.687-.78a.914.914 0 0 0 0-1.176l-.687-.78a.89.89 0 0 1-.215-.587v-4.624c0-.689.492-1.248 1.1-1.248h4.697Zm-.124.886-4.45-.006c-.174 0-.337.163-.358.395l-.003.05v4.583c0 .014.003.025.007.034l.006.01.72.773c.562.604.581 1.552.058 2.18l-.058.067-.72.772a.06.06 0 0 0-.011.025l-.002.018v9.578c0 .24.153.42.324.442l.038.003 4.45.006c.173 0 .337-.164.358-.395l.003-.05v-4.583a.09.09 0 0 0-.007-.033l-.006-.01-.72-.773a1.663 1.663 0 0 1-.058-2.181l.058-.066.72-.773a.055.055 0 0 0 .011-.025l.002-.019v-9.576c0-.242-.153-.421-.325-.444l-.037-.002Z"/></g><defs><clipPath id="a"><path fill="#fff" d="M0 0h50v50H0z"/></clipPath></defs></svg>
